svg/building/dutch_windmill_line.svg

<?xml version="1.0" encoding="UTF-8"?>
<svg width="24px" height="24px" viewBox="0 0 24 24" version="1.1" xmlns="http://www.w3.org/2000/svg" xmlns:xlink="http://www.w3.org/1999/xlink">
    <title>dutch_windmill_line</title>
    <g id="页面-1" stroke="none" stroke-width="1" fill="none" fill-rule="evenodd">
        <g id="Building" transform="translate(-768.000000, -96.000000)" fill-rule="nonzero">
            <g id="dutch_windmill_line" transform="translate(768.000000, 96.000000)">
                 <path d="M24,0 L24,24 L0,24 L0,0 L24,0 Z M12.5934901,23.257841 L12.5819402,23.2595131 L12.5108777,23.2950439 L12.4918791,23.2987469 L12.4918791,23.2987469 L12.4767152,23.2950439 L12.4056548,23.2595131 C12.3958229,23.2563662 12.3870493,23.2590235 12.3821421,23.2649074 L12.3780323,23.275831 L12.360941,23.7031097 L12.3658947,23.7234994 L12.3769048,23.7357139 L12.4804777,23.8096931 L12.4953491,23.8136134 L12.4953491,23.8136134 L12.5071152,23.8096931 L12.6106902,23.7357139 L12.6232938,23.7196733 L12.6232938,23.7196733 L12.6266527,23.7031097 L12.609561,23.275831 C12.6075724,23.2657013 12.6010112,23.2592993 12.5934901,23.257841 L12.5934901,23.257841 Z M12.8583906,23.1452862 L12.8445485,23.1473072 L12.6598443,23.2396597 L12.6498822,23.2499052 L12.6498822,23.2499052 L12.6471943,23.2611114 L12.6650943,23.6906389 L12.6699349,23.7034178 L12.6699349,23.7034178 L12.678386,23.7104931 L12.8793402,23.8032389 C12.8914285,23.8068999 12.9022333,23.8029875 12.9078286,23.7952264 L12.9118235,23.7811639 L12.8776777,23.1665331 C12.8752882,23.1545897 12.8674102,23.1470016 12.8583906,23.1452862 L12.8583906,23.1452862 Z M12.1430473,23.1473072 C12.1332178,23.1423925 12.1221763,23.1452606 12.1156365,23.1525954 L12.1099173,23.1665331 L12.0757714,23.7811639 C12.0751323,23.7926639 12.0828099,23.8018602 12.0926481,23.8045676 L12.108256,23.8032389 L12.3092106,23.7104931 L12.3186497,23.7024347 L12.3186497,23.7024347 L12.3225043,23.6906389 L12.340401,23.2611114 L12.337245,23.2485176 L12.337245,23.2485176 L12.3277531,23.2396597 L12.1430473,23.1473072 Z" id="MingCute" fill-rule="nonzero"></path>
                <path d="M8.9068,2.60037 L11.9896,6.51807 L13.9511,3.12068 C14.2272,2.64239 14.8388,2.47851 15.3171,2.75465 L18.7812,4.75465 C19.0685,4.92057 19.2549,5.21822 19.2786,5.54919 C19.3023,5.88017 19.1603,6.20136 18.8996,6.40655 L14.9819,9.48932 L18.3793,11.4508 C18.8575,11.7269 19.0214,12.3385 18.7453,12.8168 L16.7453,16.2809 C16.6166,16.5038 16.4088,16.6658 16.1676,16.7385 L16.8199,19.9999 L17.0001,19.9999 C17.5523,19.9999 18.0001,20.4476 18.0001,20.9999 C18.0001,21.5522 17.5523,21.9999 17.0001,21.9999 L7.00006,21.9999 C6.44778,21.9999 6.00006,21.5522 6.00006,20.9999 C6.00006,20.4476 6.44778,19.9999 7.00006,19.9999 L7.18028,19.9999 L8.00907,15.8559 L5.21899619,14.245 C4.93163,14.0791 4.74528,13.7815 4.72156,13.4505 C4.69784,13.1195 4.83984,12.7983 5.10061,12.5931 L9.01831,9.51037 L5.62092,7.54888 C5.14263,7.27274 4.97876,6.66115 5.2549,6.18286 L7.2549,2.71876 C7.42081,2.43139 7.71846,2.24503 8.04944,2.22131 C8.38041,2.19759 8.7016,2.3396 8.9068,2.60037 Z M12.1652,12.9999 L11.8349,12.9999 L9.94951,16.3517 L9.21988,19.9999 L14.7803,19.9999 L14.0506,16.3517 L12.1652,12.9999 Z M12.5,16 C12.7454222,16 12.9496,16.1769086 12.9919429,16.4101355 L13,16.5 L13,17.5 C13,17.7454222 12.8230914,17.9496 12.5898645,17.9919429 L12.5,18 L11.5,18 C11.2545778,18 11.0504,17.8230914 11.0080571,17.5898645 L11,17.5 L11,16.5 C11,16.2545778 11.1769086,16.0504 11.4101355,16.0080571 L11.5,16 L12.5,16 Z M10.0374,11.2534 L7.49815,13.2515 L8.81708,14.013 L10.3171,11.4149 L10.0374,11.2534 Z M13.9152,11.1829 L13.7537,11.4626 L15.7517,14.0018 L16.5132,12.6829 L13.9152,11.1829 Z M11.8171,8.81683 L11.3171,9.68286 L12.1831,10.1829 L12.6831,9.31683 L11.8171,8.81683 Z M8.24843,4.9979 L7.48695,6.31683 L10.085,7.81683 L10.2465,7.53713 L8.24843,4.9979 Z M15.1831,4.9867 L13.6831,7.58478 L13.9628,7.74626 L16.502,5.74819 L15.1831,4.9867 Z" id="形状" fill="#09244B"></path>
            </g>
        </g>
    </g>
</svg>

<svg xmlns="http://www.w3.org/2000/svg" width="24" height="24"><g fill="none" fill-rule="nonzero"><path d="M24 0v24H0V0h24ZM12.593 23.258l-.011.002-.071.035-.02.004-.014-.004-.071-.035c-.01-.004-.019-.001-.024.005l-.004.01-.017.428.005.02.01.013.104.074.015.004.012-.004.104-.074.012-.016.004-.017-.017-.427c-.002-.01-.009-.017-.017-.018Zm.265-.113-.013.002-.185.093-.01.01-.003.011.018.43.005.012.008.007.201.093c.012.004.023 0 .029-.008l.004-.014-.034-.614c-.003-.012-.01-.02-.02-.022Zm-.715.002a.023.023 0 0 0-.027.006l-.006.014-.034.614c0 .012.007.02.017.024l.015-.002.201-.093.01-.008.004-.011.017-.43-.003-.012-.01-.01-.184-.092Z"/><path fill="#09244B" d="m8.907 2.6 3.083 3.918 1.961-3.397a1 1 0 0 1 1.366-.366l3.464 2a1 1 0 0 1 .119 1.652l-3.918 3.082 3.397 1.962a1 1 0 0 1 .366 1.366l-2 3.464a1 1 0 0 1-.577.457L16.82 20H17a1 1 0 0 1 0 2H7a1 1 0 1 1 0-2h.18l.83-4.144-2.791-1.611a1 1 0 0 1-.118-1.652L9.018 9.51 5.621 7.55a1 1 0 0 1-.366-1.366l2-3.464A1 1 0 0 1 8.907 2.6ZM12.165 13h-.33L9.95 16.352 9.22 20h5.56l-.73-3.648L12.166 13Zm.335 3a.5.5 0 0 1 .492.41l.008.09v1a.5.5 0 0 1-.41.492L12.5 18h-1a.5.5 0 0 1-.492-.41L11 17.5v-1a.5.5 0 0 1 .41-.492L11.5 16h1Zm-2.463-4.747-2.539 1.999 1.32.761 1.5-2.598-.28-.162Zm3.878-.07-.161.28 1.998 2.539.761-1.32-2.598-1.5Zm-2.098-2.366-.5.866.866.5.5-.866-.866-.5Zm-3.569-3.82-.761 1.32 2.598 1.5.161-.28-1.998-2.54Zm6.935-.01-1.5 2.598.28.161 2.539-1.998-1.319-.761Z"/></g></svg>
